X: 3375
T: TO LADIES' EYES
%R: march
B: James Kerr "Merry Melodies" v.3 p.41 #375
Z: 2016 John Chambers <jc:trillian.mit.edu>
M: 2/4
L: 1/8
K: A
E |\
EFAB | c2(BA) | c>BBB | c>BBc |\
EFAB | c2(BA) | B>AAB | cAA ::\
e |\
fefa | e2(dc) | d>BBc | d>BBe |\
fefa | e2(dc) | B>AAB | cAA :|

%%sep 1 1 500
%%sep 1 1 500

